X: 74
T: Factus est repente
C: Gaspar van Weerbeke
%%abc-version 2.0
%%abcx-abcm2ps-target-version 5.9.1 (29 Sep 2008)
%%abc-creator hum2abc beta
%%abcx-conversion-date 2022/03/06 13:05:55
%%abc-copyright Copyright 1994, Lindmayr-Brandl, Andrea
%%abc-edited-by Mair-Gruber, Roland
%%humdrum-veritas 2610954225
%%humdrum-veritas-data 3982431641
%%linebreak <none>
%%barnumbers 0
L: 1/4
M: 2/2
N: Derived from Gas0303f-In_honorem_sancti_spiritus-Factus_est_repente.krn
%%staves [1 2 3 4]
V: 1 clef=treble
V: 2 clef=treble-8
V: 3 clef=treble-8
V: 4 clef=bass
K: C
[V:1] G4 | 
[V:2] G4 | 
[V:3] z4 | 
[V:4] z4 | 
[V:1] G>EF3/G/ | 
[V:2] G2d2 | 
[V:3] z4 | 
[V:4] z4 | 
[V:1] A/_B<AG/F/E/ | 
[V:2] d2d2 | 
[V:3] z4 | 
[V:4] z4 | 
[V:1] FGA2 | 
[V:2] d4 | 
[V:3] z4 | 
[V:4] z4 | 
[V:1] B4 | 
[V:2] G2d2- | 
[V:3] G4 | 
[V:4] z4 | 
[V:1] B2B2- | 
[V:2] dcBA | 
[V:3] G2d2- | 
[V:4] G,,4 | 
[V:1] BA/G/AF- | 
[V:2] G2FD | 
[V:3] dc/B/A2 | 
[V:4] G,,2D,2 | 
[V:1] FGA_B | 
[V:2] d>ef2- | 
[V:3] ABAd- | 
[V:4] D,2D,2 | 
[V:1] AG2^F | 
[V:2] fd>cB/A/ | 
[V:3] dc/B/A2 | 
[V:4] D,4 | 
[V:1] G2zG | 
[V:2] B2d2 | 
[V:3] G4 | 
[V:4] G,,4 | 
[V:1] AFG2 | 
[V:2] d2c2 | 
[V:3] F2E2 | 
[V:4] z4 | 
[V:1] FA2G/F/ | 
[V:2] f3e/d/ | 
[V:3] D/E/F/G/AB | 
[V:4] D,2D,2 | 
[V:1] EGFE/D/ | 
[V:2] e2c3/d/ | 
[V:3] c2A2 | 
[V:4] C,2F,2 | 
[V:1] CEDF- | 
[V:2] e/d/c/B/Ad- | 
[V:3] zCD2 | 
[V:4] E,2F,2 | 
[V:1] FD2^C | 
[V:2] dA3 | 
[V:3] F2E2 | 
[V:4] D,2A,,2 | 
[V:1] D2zD | 
[V:2] A4 | 
[V:3] D4 | 
[V:4] z4 | 
[V:1] C2D2 | 
[V:2] z4 | 
[V:3] E2DF | 
[V:4] z2D,2 | 
[V:1] E2D2 | 
[V:2] z2A2 | 
[V:3] EGF2 | 
[V:4] C,2D,2 | 
[V:1] C/D/E/F/G2- | 
[V:2] G2B2 | 
[V:3] EG>FE/D/ | 
[V:4] E,2E,2 | 
[V:1] GF/E/F2 | 
[V:2] c2d2 | 
[V:3] CGA3/B/ | 
[V:4] E,2D,2 | 
[V:1] E>FG3/A/ | 
[V:2] e2c2 | 
[V:3] c2G2- | 
[V:4] C,2E,2 | 
[V:1] Bc2B | 
[V:2] d4 | 
[V:3] G2F2 | 
[V:4] D,4 | 
[V:1] c2z2 | 
[V:2] ecA3/B/ | 
[V:3] G2z2 | 
[V:4] C,2z2 | 
[V:1] c2AB | 
[V:2] c2d2 | 
[V:3] z4 | 
[V:4] z4 | 
[V:1] c>BGA- | 
[V:2] c2z2 | 
[V:3] z2c2 | 
[V:4] z4 | 
[V:1] AG/F/E2 | 
[V:2] z4 | 
[V:3] ABc2 | 
[V:4] z2C,2 | 
[V:1] z4 | 
[V:2] z4 | 
[V:3] cB/A/Gc- | 
[V:4] A,,B,,C,2 | 
[V:1] z4 | 
[V:2] z4 | 
[V:3] cBc2 | 
[V:4] D,2C,2 | 
[V:1] z4 | 
[V:2] z4 | 
[V:3] G2EG- | 
[V:4] C,3B,, | 
[V:1] z4 | 
[V:2] z4 | 
[V:3] GF/E/FD | 
[V:4] C,2D,2 | 
[V:1] z4 | 
[V:2] z4 | 
[V:3] CGAB | 
[V:4] E,2D,2 | 
[V:1] z4 | 
[V:2] z4 | 
[V:3] c>BGc- | 
[V:4] C,2C,A,,- | 
[V:1] z4 | 
[V:2] z4 | 
[V:3] c/B/A/G/AB- | 
[V:4] A,,/B,,<C,B,,/G,, | 
[V:1] z4 | 
[V:2] z4 | 
[V:3] B/A/G2^F | 
[V:4] B,,C,A,,2 | 
[V:1] z2G2 | 
[V:2] d2ed | 
[V:3] G4 | 
[V:4] G,,4 | 
[V:1] B2B/A/G/F/ | 
[V:2] g3/f//e//d3/c/ | 
[V:3] z4 | 
[V:4] G,,2B,,2 | 
[V:1] G2Ac | 
[V:2] B/A/Gc2 | 
[V:3] z4 | 
[V:4] B,,2A,,2 | 
[V:1] BG2F/E/ | 
[V:2] d2e2 | 
[V:3] z2G2 | 
[V:4] B,,2C,2 | 
[V:1] D2zB | 
[V:2] zd2g- | 
[V:3] B2B2 | 
[V:4] B,,2G,,2 | 
[V:1] c>Ad2 | 
[V:2] gfgd | 
[V:3] A2B2 | 
[V:4] A,,2G,,2 | 
[V:1] cB/A/GB- | 
[V:2] e>fg2 | 
[V:3] c2B2 | 
[V:4] z2G,2- | 
[V:1] BAGA- | 
[V:2] dfef | 
[V:3] GcBA | 
[V:4] G,F,G,F, | 
[V:1] AG2^F | 
[V:2] d/B/cd2 | 
[V:3] BGA2 | 
[V:4] G,E,D,2 | 
[V:1] [M:3/2]G6 | 
[V:2] [M:3/2]B6 | 
[V:3] [M:3/2]G6 | 
[V:4] [M:3/2]G,,6 | 
[V:1] z6 | 
[V:2] z6 | 
[V:3] z6 | 
[V:4] G,,4A,,2 | 
[V:1] z6 | 
[V:2] G2>A2B2 | 
[V:3] z6 | 
[V:4] C,4D,2 | 
[V:1] z6 | 
[V:2] c4d2 | 
[V:3] G4A2 | 
[V:4] E,4D,2 | 
[V:1] z6 | 
[V:2] e4d2 | 
[V:3] c2>B2A2 | 
[V:4] C,4D,2- | 
[V:1] F2G2E2 | 
[V:2] A4G2 | 
[V:3] d4c2 | 
[V:4] D,2E,4 | 
[V:1] F2>G2A2- | 
[V:2] A4z2 | 
[V:3] d6 | 
[V:4] D,6 | 
[V:1] A2B2A2 | 
[V:2] d6- | 
[V:3] D2G2F2 | 
[V:4] z6 | 
[V:1] d4^c2 | 
[V:2] d2e4 | 
[V:3] D2A4 | 
[V:4] z6 | 
[V:1] d2>B2AB | 
[V:2] d6 | 
[V:3] D4F2 | 
[V:4] z6 | 
[V:1] cBAGF2 | 
[V:2] e4d2 | 
[V:3] C4D2 | 
[V:4] z6 | 
[V:1] E2A4 | 
[V:2] c2d4 | 
[V:3] E2F4 | 
[V:4] z6 | 
[V:1] G2>E2FE | 
[V:2] e4z2 | 
[V:3] GABcdB | 
[V:4] E,4D,2 | 
[V:1] G2>E2^F2 | 
[V:2] e2d4 | 
[V:3] c2A4 | 
[V:4] C,2D,4 | 
[V:1] G4z2 | 
[V:2] B4z2 | 
[V:3] G4F2 | 
[V:4] E,4D,2 | 
[V:1] z6 | 
[V:2] z6 | 
[V:3] EFGAB2 | 
[V:4] C,4D,2 | 
[V:1] z6 | 
[V:2] z6 | 
[V:3] A4G2 | 
[V:4] C,2B,,4 | 
[V:1] z6 | 
[V:2] z6 | 
[V:3] A2c2B2 | 
[V:4] A,,4G,,2 | 
[V:1] z6 | 
[V:2] z6 | 
[V:3] d2>c2A2 | 
[V:4] B,,4C,2 | 
[V:1] z6 | 
[V:2] z6 | 
[V:3] G4FE | 
[V:4] B,,2G,,2A,,2 | 
[V:1] z6 | 
[V:2] z6 | 
[V:3] D4ED | 
[V:4] B,,4G,,2- | 
[V:1] z6 | 
[V:2] z6 | 
[V:3] G4^F2 | 
[V:4] G,,2A,,4 | 
[V:1] z2z2G2 | 
[V:2] d4e2 | 
[V:3] G4z2 | 
[V:4] G,,6 | 
[V:1] B4c2 | 
[V:2] d2g2e2 | 
[V:3] G4A2 | 
[V:4] z6 | 
[V:1] d4c2 | 
[V:2] d4e2 | 
[V:3] B4c2 | 
[V:4] z6 | 
[V:1] A4z2 | 
[V:2] f2>d2e2 | 
[V:3] d4c2 | 
[V:4] z6 | 
[V:1] A4B2 | 
[V:2] f4g2 | 
[V:3] A4z2 | 
[V:4] D,4B,,2 | 
[V:1] G4F2 | 
[V:2] e4d2- | 
[V:3] z6 | 
[V:4] C,4D,2 | 
[V:1] D2d4 | 
[V:2] d2g4 | 
[V:3] d4B2 | 
[V:4] B,,4G,,2 | 
[V:1] c2A4 | 
[V:2] z6 | 
[V:3] c4d2 | 
[V:4] z6 | 
[V:1] B2G4 | 
[V:2] d4e2 | 
[V:3] B4AG | 
[V:4] G,4E,2 | 
[V:1] c4B2- | 
[V:2] c2f2d2 | 
[V:3] A4B2 | 
[V:4] F,4G,2 | 
[V:1] B2G3E | 
[V:2] g2>f2e2 | 
[V:3] G2B2c2 | 
[V:4] E,4C,2 | 
[V:1] F2A3G | 
[V:2] d2f3e | 
[V:3] A2d3c | 
[V:4] D,2>E,2F,2 | 
[V:1] G4^F2 | 
[V:2] d4d2 | 
[V:3] B2A4 | 
[V:4] G,2D,4 | 
[V:1] G6- | 
[V:2] B2>c2d2 | 
[V:3] G6- | 
[V:4] G,,2>A,,2B,,2 | 
[V:1] G6- | 
[V:2] e2>d2ed/c/ | 
[V:3] G6- | 
[V:4] C,2>B,,2C,B,,/A,,/ | 
[V:1] G6- | 
[V:2] B4c2 | 
[V:3] G6- | 
[V:4] G,,6- | 
[V:1] G6 |]  
[V:2] d6 |]  
[V:3] G6 |]  
[V:4] G,,6 |]  


